public/assets/images/icons/grey/zoom-out-1-06.svg

<svg data-name="Ebene 1" xmlns="http://www.w3.org/2000/svg" viewBox="0 0 16 16"><path d="M16 5h-3V3h-2V0h-1v3H3v7H0v1h3v2h2v3h1v-3h7V6h3zm-4-1v1h-1V4zm-8 8v-1h1v1zm8 0H6v-2H4V4h6v2h2z" fill="#6f6f6e"/></svg>

<svg id="Ebene_1" data-name="Ebene 1" xmlns="http://www.w3.org/2000/svg" viewBox="0 0 16 16"><defs><style>.cls-1{fill:#6f6f6e;}</style></defs><title>180607_Vector-Iconset 16x16</title><path class="cls-1" d="M16,5H13V3H11V0H10V3H3v7H0v1H3v2H5v3H6V13h7V6h3ZM12,4V5H11V4ZM4,12V11H5v1Zm8,0H6V10H4V4h6V6h2Z"/></svg>
